!!!OTL: She'll be Comin' 'Round the Mountain
!!!COM: unknown
!!!ODT: 1850 (19th century)
!!!YOR: The Folksong Fake Book
!!!YOY: 2000
!!!AST: Folk song
!!!YEC: Brian Luke, 2001
**kern	**harm
*k[f#]	*k[f#]
*M4/4	*M4/4
*G:	*G:
*>A	*>A
4d	.
4e	.
=1	=1
4g	I
4g	.
4.g	.
8g	.
=2	=2
4e	.
4d	.
4B	.
4d	.
=3	=3
2g	.
2r	.
=4	=4
2r	.
4.g	.
8a	.
=5	=5
8b	.
4.b	.
4.b	.
8b	.
=6	=6
4dd	.
4b	.
4a	.
4g	.
=7	=7
2a	V7
2r	.
=8	=8
2r	.
4.dd	.
8dd	.
=9	=9
4b	I
4b	.
4b	.
4b	.
=10	=10
4a	V7/IV
4g	.
4g	.
4g	.
=11	=11
4e	IV
4e	.
4e	.
4e	.
=12	=12
4a	.
4g	.
4f#	.
4e	.
=13	=13
8d	I
4.d	.
4.g	.
8b	.
=14	=14
4b	V7/V
4a	.
4e	V7
4f#	.
=15	=15
[1g	I;
=16	=16
2g]	.
*-	*-
